!!!COM: Bach, Johann Sebastian
!!!CDT: 1685/3//-1750/7/28/
!!!OTL@@DE: Von Gott will ich nicht lassen
!!!AGN: 4-Part Chorale
!!!SCT: BH 191
!!!SCT: BWV 73
**harm	**root	**kern	**kern	**kern	**kern
!	!	!bass	!tenor	!alto	!soprno
*	*Iorgan	*Iorgan	*Iorgan	*Iorgan	*Iorgan
*	*	*clefF4	*clefF4	*clefG2	*clefG2
*k[f#]	*k[f#]	*k[f#]	*k[f#]	*k[f#]	*k[f#]
*e:	*e:	*e:	*e:	*e:	*e:
*M4/4	*M4/4	*M4/4	*M4/4	*M4/4	*M4/4
*met(c)	*met(c)	*met(c)	*met(c)	*met(c)	*met(c)
*MM60	*MM60	*MM60	*MM60	*MM60	*MM60
*>[A,A,B]	*>[A,A,B]	*>[A,A,B]	*>[A,A,B]	*>[A,A,B]	*>[A,A,B]
*>A	*>A	*>A	*>A	*>A	*>A
i	4AA	4EE	4E	4G	4B
=1	=1	=1	=1	=1	=1
i	4AA	4E	4G	4B	4e
Vb	4EE	4D#	4F#	4B	4f#
i	4AA	4E	4E	4B	4g
Vb/-VII	4DD	4C#	4E	4A	4a
=2	=2	=2	=2	=2	=2
-VII	4GG	4D	4D	8A	2f#
.	.	.	.	8B	.
Vb/V	4BB	4AA#	4C#	4c#	.
v;	4EE;	4BB;	4F#;	4B;	4d;
III	4CC	4GG	4G	4B	4d
=3	=3	=3	=3	=3	=3
VI	4FF	4C	4E	4G	4e
iv	4DD	4AA	4C	4A	4e
V7b	2EE	4DD#	4BB	8A	4f#
.	.	.	.	8c	.
.	.	4DD#	4BB	8B	4f#
.	.	.	.	8A	.
=4	=4	=4	=4	=4	=4
i;	2.AA;	2.EE;	2.E;	2.G;	2.B;
=:|!	=:|!	=:|!	=:|!	=:|!	=:|!
*>B	*>B	*>B	*>B	*>B	*>B
i	4AA	4E	4G	4e	4b
=5	=5	=5	=5	=5	=5
iv	4DD	4C	4A	4e	4a
iv7	4DD	4AA	4c	4e	4g
IIIc	4CC	4D	4B	4d	4g
-VII	4GG	4DD	4A	4d	4f#
=6	=6	=6	=6	=6	=6
III;	2.CC;	2.GG;	2.B;	2.d;	2.g;
-VII	4GG	4D	4A	4d	4f#
!!linebreak: 2
=7	=7	=7	=7	=7	=7
IIIb	4CC	4BB	4.G	4d	4g
iiob	4BB	4AA	.	4c	4a
.	.	.	[8F#	.	.
III	4CC	4GG	8F#]	4d	4b
.	.	.	8D	.	.
i	4AA	4EE	4G	8e	4b
.	.	.	.	8d	.
=8	=8	=8	=8	=8	=8
V7/-VII	2DD	2AA	4G	8c#	2a
.	.	.	.	8B	.
.	.	.	8F#	4c#	.
.	.	.	8E	.	.
-VII;	4GG;	4DD;	4D;	4A;	4f#;
-VII	4GG	4D	4A	4d	4f#
=9	=9	=9	=9	=9	=9
IIIb	4CC	4BB	4G	4d	4g
III7	4CC	4GG	4D	4B	4f#
VI	4FF	4C	8E	4G	4e
.	.	.	8F#	.	.
VI7	4FF	4BB	4G	[4c	4e
=10	=10	=10	=10	=10	=10
iiob	4BB	4AA	4A	8c]	4f#
.	.	.	.	8B	.
vii7/V	4DD#	4AA#	4G	4c#	4e
v;	4EE;	4BB;	4F#;	4B;	4d;
V7/III	4GG	4FF#	4D	4A	4c
=11	=11	=11	=11	=11	=11
III	4CC	4GG	4D	4G	4B
ivb	4DD	4C	8E	4A	4e
.	.	.	8F#	.	.
ic	4AA	4BB	8G	4B	4e
.	.	.	16F#	.	.
.	.	.	16E	.	.
V	4EE	4BBB	4F#	4B	4d#
=12	=12	=12	=12	=12	=12
I;	2.AA;	2.EE;	2.G#;	2.B;	2.e;
==	==	==	==	==	==
*-	*-	*-	*-	*-	*-
!!chor2scor: -l 2 -s 0.6 -o %b.pmx
!!!YEC: Copyright 2001 by Craig Stuart Sapp
!!!license: GNU General Public License (http://www.gnu.org/copyleft/gpl.html)
!!!SMA: 371 Bach Chorales, edited by Ludwig Erk, C.F. Peters
!!!PDT: 1850, 1865
!!!ONB: Harmony and Root analysis done manually by Craig Sapp
